img/svg/icon-font/file-edit.svg

<svg width="22" height="22" viewBox="0 0 22 22" fill="none" xmlns="http://www.w3.org/2000/svg">
<path d="M8.89453 21.1406C8.89453 21.6153 8.50983 22 8.03516 22H4.59766C2.70216 22 1.16016 20.458 1.16016 18.5625V6.22426C1.16016 5.33199 1.50609 4.49174 2.13417 3.85812L4.97195 0.994995C5.59869 0.362717 6.46881 0 7.35924 0H15.1633C17.0586 0 18.6008 1.54201 18.6008 3.4375V7.99219C18.6008 8.46686 18.2159 8.85156 17.7414 8.85156C17.2667 8.85156 16.882 8.46686 16.882 7.99219V3.4375C16.882 2.48984 16.1109 1.71875 15.1633 1.71875H7.35924C6.92418 1.71875 6.49886 1.896 6.1927 2.205L3.35492 5.06796C3.21611 5.20795 3.10583 5.36874 3.02644 5.54297H5.41406C6.12489 5.54297 6.70312 4.96457 6.70312 4.25391C6.70312 3.77924 7.08783 3.39453 7.5625 3.39453C8.03717 3.39453 8.42188 3.77924 8.42188 4.25391C8.42188 5.9124 7.07256 7.26172 5.41406 7.26172H2.87891V18.5625C2.87891 19.5102 3.64999 20.2812 4.59766 20.2812H8.03516C8.50983 20.2812 8.89453 20.666 8.89453 21.1406Z" fill="#4C51CB"/>
<path d="M20.6433 11.754C19.6381 10.7488 18.0026 10.7488 16.998 11.7533L12.2799 16.461C12.1797 16.561 12.1058 16.6841 12.0646 16.8195L11.0371 20.2023C10.946 20.5022 11.0254 20.8278 11.2443 21.0522C11.4082 21.2202 11.631 21.3114 11.8595 21.3114C11.9359 21.3114 12.0131 21.3012 12.0888 21.2802L15.5575 20.3194C15.7002 20.2799 15.8303 20.2041 15.9352 20.0994L20.6434 15.4001C21.6486 14.3949 21.6486 12.7593 20.6433 11.754ZM14.8809 18.7234L13.1358 19.2068L13.6465 17.5254L16.83 14.349L18.0456 15.5646L14.8809 18.7234ZM19.4287 14.1842L19.2622 14.3504L18.0468 13.135L18.2127 12.9694C18.5478 12.6344 19.093 12.6344 19.4281 12.9694C19.7631 13.3045 19.7631 13.8497 19.4287 14.1842Z" fill="#4C51CB"/>
</svg>

<svg width="22" height="22" fill="none" xmlns="http://www.w3.org/2000/svg"><path d="M8.895 21.14a.86.86 0 01-.86.86H4.598a3.441 3.441 0 01-3.438-3.438V6.225c0-.892.346-1.732.974-2.366L4.972.995A3.383 3.383 0 017.359 0h7.804a3.441 3.441 0 013.438 3.438v4.554a.86.86 0 01-1.719 0V3.438a1.72 1.72 0 00-1.719-1.72H7.36c-.435 0-.86.178-1.166.487L3.355 5.068c-.139.14-.25.3-.329.475h2.388c.71 0 1.29-.578 1.29-1.29a.86.86 0 111.718 0 3.011 3.011 0 01-3.008 3.009H2.88v11.3a1.72 1.72 0 001.719 1.72h3.437a.86.86 0 01.86.859z" fill="#4C51CB"/><path d="M20.643 11.754a2.58 2.58 0 00-3.645 0L12.28 16.46a.86.86 0 00-.215.359l-1.028 3.382a.86.86 0 001.052 1.078l3.468-.96a.86.86 0 00.378-.22l4.708-4.7a2.581 2.581 0 000-3.646zm-5.762 6.97l-1.745.483.51-1.682 3.184-3.176 1.216 1.216-3.165 3.158zm4.548-4.54l-.167.166-1.215-1.215.166-.166a.86.86 0 011.216 1.215z" fill="#4C51CB"/></svg>
